dist/img/downarrow.svg

<svg width="13" height="10" viewBox="0 0 13 10" fill="none" xmlns="http://www.w3.org/2000/svg">
<path d="M6.17456 9.07993C6.50734 9.08249 6.82604 8.93875 7.06154 8.68335L12.0613 3.2068C12.551 2.67032 12.551 1.80015 12.0613 1.26235C11.5715 0.725864 10.7771 0.725864 10.2861 1.26235L6.17456 5.78013L2.06303 1.27647C1.56623 0.811849 0.828035 0.842669 0.366399 1.34835C-0.0952683 1.85405 -0.124544 2.6639 0.300783 3.20679L5.3005 8.68333L5.29933 8.68333C5.5325 8.93617 5.84647 9.07865 6.17456 9.07993Z" fill="white"/>
</svg>

<svg width="13" height="10" fill="none" xmlns="http://www.w3.org/2000/svg"><path d="M6.175 9.08c.332.002.651-.141.887-.397l5-5.476a1.47 1.47 0 000-1.945 1.18 1.18 0 00-1.776 0L6.175 5.78 2.063 1.276a1.172 1.172 0 00-1.697.072 1.465 1.465 0 00-.065 1.859l5 5.476h-.002c.233.253.547.396.876.397z" fill="#fff"/></svg>
